icons/icn_play.svg

<svg width="24" xmlns="http://www.w3.org/2000/svg" height="24" id="screenshot-e387bb83-ae60-800e-8006-366ae6e63e4b" viewBox="0 0 24 24" xmlns:xlink="http://www.w3.org/1999/xlink" fill="none" version="1.1"><g id="shape-e387bb83-ae60-800e-8006-366ae6e63e4b"><g class="frame-container-wrapper"><g class="frame-container-blur"><g class="frame-container-shadows"><g fill="none"><g class="fills" id="fills-e387bb83-ae60-800e-8006-366ae6e63e4b"><rect rx="0" ry="0" x="0" y="0" width="24" height="23.999999999999545" transform="matrix(1, 0, 0, 1, 0, 0)" class="frame-background"/></g><g class="frame-children"><g id="shape-e387bb83-ae60-800e-8006-366ae6e63e68" rx="0" ry="0" style="fill: rgb(0, 0, 0);"><g id="shape-e387bb83-ae60-800e-8006-366ae6e63e69"><g class="fills" id="fills-e387bb83-ae60-800e-8006-366ae6e63e69"><path d="M6.268366813659668,5.002586841583252C6.046687126159668,5.012718677520752,5.827204704284668,5.078392505645752,5.630183219909668,5.200584888458252C5.236628532409668,5.442772388458252,5.001276969909668,5.866356372833252,5.001276969909668,6.329246997833252L5.001276969909668,17.674705505371094C5.001276969909668,18.136863708496094,5.236384391784668,18.558494567871094,5.630183219909668,18.801292419433594C5.844782829284668,18.933494567871094,6.084773063659668,19.001243591308594,6.326228141784668,19.001243591308594C6.528376579284668,19.001243591308594,6.730525016784668,18.955467224121094,6.920222282409668,18.860984802246094L18.268611907958984,13.187278747558594C18.721981048583984,12.961326599121094,19.002010345458984,12.506736755371094,19.001277923583984,12.000999450683594C19.001277923583984,11.494529724121094,18.721981048583984,11.040672302246094,18.268611907958984,10.814720153808594L6.920222282409668,5.142967700958252C6.712702751159668,5.039574146270752,6.490046501159668,4.992455005645752,6.268366813659668,5.002586841583252Z" style="stroke-width: 0.984435; fill: rgb(0, 0, 0); fill-opacity: 1;"/></g></g></g></g></g></g></g></g></g></svg>

<svg fill="none" viewBox="0 0 24 24"><g class="frame-container-wrapper"><g class="frame-container-blur"><g class="frame-container-shadows"><g class="fills"><rect width="24" height="24" class="frame-background" rx="0" ry="0"/></g><g class="frame-children"><path fill="#000" d="M6.2684 5.0026a1.323 1.323 0 0 0-.6382.198c-.3936.2422-.629.6658-.629 1.1286v11.3455c0 .4622.2352.8838.629 1.1266.2146.1322.4546.2.696.2.2022 0 .4043-.0458.594-.1403l11.3484-5.6737c.4534-.226.7334-.6806.7327-1.1863 0-.5065-.2793-.9603-.7327-1.1863L6.9202 5.143c-.2075-.1034-.4302-.1505-.6518-.1404Z" class="fills"/></g></g></g></g></svg>
